icon-themes/breeze_svg/cmd/32/bringtofront.svg

<svg viewBox="0 0 32 32" xmlns="http://www.w3.org/2000/svg"><path d="m4 5v1h24v-1zm19.5 3-1 1-4 4 .707031.707031 3.792969-3.7929685v18.0859375h1v-18.0859375l3.792968 3.7929685.707032-.707031-4-4zm-19.5 4v1h13v-1zm0 8v1h13v-1zm0 7v1h13v-1z" fill="#4d4d4d"/></svg>

<svg xmlns="http://www.w3.org/2000/svg" viewBox="0 0 32 32">
 <path 
     style="fill:#4d4d4d" 
     d="M 4 5 L 4 6 L 28 6 L 28 5 L 4 5 z M 22.960938 8 L 21.960938 9 L 17.960938 13 L 18.667969 13.707031 L 22.460938 9.9140625 L 22.460938 28 L 23.460938 28 L 23.460938 9.9140625 L 27.253906 13.707031 L 27.960938 13 L 23.960938 9 L 22.960938 8 z M 4 12 L 4 13 L 17 13 L 17 12 L 4 12 z M 4 20 L 4 21 L 17 21 L 17 20 L 4 20 z M 4 27 L 4 28 L 17 28 L 17 27 L 4 27 z "
     />
</svg>
